X: 7425
T: Cloone, The
R: reel
M: 4/4
K: Gmajor
DGBG DGBe|dBGB AEGE|DGBG DGBe|dBAF G3 E|
DGBG DGBe|dBGB AEGE|DGBG DGBe|dBAF G2 ge||
dg g2 dgbg|agab ageg|dg g2 dgbg|agab g3 e|
dg g2 dgbg|agab agef|ge e2 dB B2|dBAc BGGE||

